X:0853
T:Mr. Blair of Blair's Jig.
M:6/8
L:1/8
Q:3/8=120
I: :: :|
Z:Jack Campin * www.campin.me.uk * 2009
K:G
B/c/|dBG GBG|AFD DFD|EFG ABc|BAG FED|
     dBG GBG|AFD DFD|EFG AFD|G3  G2:|
B/c/|dBd dBd|gfg dBG|cec BdB|ABG AFD|
     dBd dBd|gfg dBG|EFG AFD|G3  G2:|
<end>
<start>
